X: 1
T: den trekantede sl\ojfe
O: Himmerland, Denmark
S: efter Evald Thomsen og Thorkild Knudsen
F: http://www.folketshus.dk/cgi-bin/visnode.cgitr-treksl
R: jig
Z: 2006 John Chambers <jc@trillian.mit.edu>
M: 6/8
L: 1/8
K: G
d \
|: "D"dcA "G"GBd | "D"DFA "G"GBd | "D"dcA "G"GBd |1 "D"faf "G"gdd :|2 "D"faf "G"gz2 ||
|| "G"gzg "D"aza | "G"bzg B2B/d/ | "D"cBc aag | "D"fef "G"gdd \
|  "G"g2f/g/ "D"a2g/a/ | "G"b2g d2B/d/ | "D"cBc a2a/g/ | "D"fef "G"gz2 ||
|| "G"BzB dzd | "D"cBA "G"BGG | "G"BBB ddd | "D"cBA "G"GDD \
|  "G"BGB dBd | "D"cBA "G"BAG | "G"BGB dBd | "D"cBA "G"Gz2 ||
|: "G"dcB dcB | "C"efg "G"ddd | "C"efg "G"dBd |1 "D"cBA "G"BAG :|2 "D"cBA "G"Gz2 ||
|| "G"GzB "D"Azc | "G"Bzd/B/ GzB | "G"B2A "D"A>Bc/d/ | "C"ezd "G"d>cB/A/ \
|  "G"GzB "D"Azc | "G"Bzd/B/ GzB | "G"B2A "D"AGF | "D"AGG "G"Gz2 ||
|| "G"dcB "D"ABc | "C"edc "G"BAB | "G"dcB "D"ABc | "C"edd "G"dzB \
|  "G"dcB "D"ABc | "C"edc "G"Bdg | "D"fed cBA | "G"Ggg gz2 ||
|: "G"GBd gfe | "G"dBG DGB | "D"cAF DFA |1"G"GBd gfe :|2 "G"G2G G2 |]
